X:260
T:Family Pride, The 
C:Joe Buchanan's Scottish Tome - Page 307.2
I:307 2
C:Lindsay Ross
R:Jig
Z:Carl Allison
L:1/8
M:6/8
K:D
A |"D" f2 e dcB|"D" A2 F F2 A |"Em" G2 E "A7"EcB |"D" A2 F F2 A |
"D"f2 e dcB |"D" A2 F F2 A |"Em" ged "A7"cBc |"D"  d3 d2 :|
"D"AFD d2 c | "G"c2 B B3 | "A7"GEC c2 B |"D" B2 A A3 |
"B7" F^DB, B2 A | "Em"A2 G G2 F | "Em"Eed "A7"cBc | "D"d3 d3 :|

